!!!OTL: Divertimento in F, 2. Satz, KV 138/02
!!!system-decoration: [(s1,s2,s3,s4)]
**kern	**kern	**kern	**kern	**kern	**kern	**kern	**kern	**kern	**kern	**kern	**kern	**kern	**kern	**kern	**kern
*part4	*part4	*part4	*part4	*part3	*part3	*part3	*part3	*part2	*part2	*part2	*part2	*part1	*part1	*part1	*part1
*staff16	*staff15	*staff14	*staff13	*staff12	*staff11	*staff10	*staff9	*staff8	*staff7	*staff6	*staff5	*staff4	*staff3	*staff2	*staff1
*I"Violoncello e Basso	*	*	*	*I"Viola	*	*	*	*I"Violino II	*	*	*	*I"Violino I	*	*	*
*clefF4	*clefC3	*clefG2	*clefG2
*M3/4	*M3/4	*M3/4	*M3/4
4C	2.G	(16eL	2gg
.	.	16f	.
.	.	16g	.
.	.	16eJ)	.
4E	.	(16cL	.
.	.	16G	.
.	.	16e	.
.	.	16cJ)	.
4G	.	(16BL	(8.ffLT
.	.	16c	.
.	.	16d	.
.	.	16BJ)	32ee
.	.	.	32ffJ)
=2	=2	=2	=2
.	.	.	(<8qff
4A	2A	(16cL	2ee)
.	.	16B	.
.	.	16c	.
.	.	16dJ)	.
4AA	.	(16cL	.
.	.	16d	.
.	.	16e	.
.	.	16fJ)	.
4E	8eL	(16gL	8r
.	.	16a	.
.	16g	16b-	(16ccL
.	16B-J	16gJ)	16cc#J)
=3	=3	=3	=3
4F	4A	(16fL	(8ddL
.	.	16a	.
.	.	16f	16ff
.	.	16dJ)	16aaJ)
4G	4G	(16eL	4ccn
.	.	16g	.
.	.	16e	.
.	.	16cJ)	.
4GG	4G	16BL	(8ddL
.	.	(16B	.
.	.	16c	16ee
.	.	16dJ)	16ffJ)
=4	=4	=4	=4
.	.	(<16qe	.
.	.	.	(<16qgg
4C	4G	(8dL)	(8ffL)
.	.	16c	16ee
.	.	16dJ)	16ffJ)
8r	8r	16cL	4ee
.	.	(16cc	.
8CL	4e 4G	16b	.
.	.	16ccJ)	.
8C	.	(16ddL	4r
.	.	16cc	.
8BBJ	8e 8G	16b	.
.	.	16ccJ)	.
=5	=5	=5	=5
4AA	4c	16r	8r
.	.	(16cL	.
.	.	16B	4ff
.	.	16cJ)	.
8r	4r	(16dL	.
.	.	16c	.
8AAL	.	16B	4ff
.	.	16cJ)	.
8AA-	4A-	(16dL	.
.	.	16c	.
8AA-yJ	.	16B	8ff
.	.	16cJ)	.
=6	=6	=6	=6
4GG	4G	(16BL	8r
.	.	16g	.
.	.	16d	4ddd 4ff 4g
.	.	16gJ)	.
4GG	4G	(16BL	.
.	.	16g	.
.	.	.	(<16qccc
.	.	16d	8bbL)
.	.	16gJ)	.
.	.	.	(<16qaa
4GG	4G	(16BL	8gg)
.	.	16G)	.
.	.	.	(<16qgg
.	.	(16d	8ffJ)
.	.	16BJ)	.
=7	=7	=7	=7
4C	4G	(16cL	(16eeL
.	.	16e)	16gg)
.	.	(16g	(16ccc
.	.	16eJ)	16ggJ)
4BB	4G	(16eL	(16ggL
.	.	16d)	16ff)
.	.	(16f	(16aa
.	.	16dJ)	16ffJ)
4C	4G	(16dL	(16ffL
.	.	16c)	16ee)
.	.	(16e	(16gg
.	.	16cJ)	16eeJ)
=8	=8	=8	=8
8r	4G	(8.eL	(8.ggL
8G	.	.	.
.	.	16cJ)	16eeJ)
16GGL	16r	4B	4dd
16G	16bL	.	.
16F#	16a	.	.
16EJ	16gJ	.	.
16DL	16f#L	4r	4r
16C	16e	.	.
16BB	16d	.	.
16AAJ	16cJ	.	.
!!LO:LB
=9	=9	=9	=9
4GG	4B	(8.bL	(8.ddL
.	.	16dJ)	16bbJ)
16r	16r	2d	[2bb
(16GL	(16bL	.	.
16F#	16a	.	.
16GJ)	16bJ)	.	.
(16AL	(16ccL	.	.
16G	16b	.	.
16F#y	16a	.	.
16GJ)	16bJ)	.	.
=10	=10	=10	=10
4E	4g	(8.cL	(8.bbL_
.	.	16bJ)	16ccJ)
16r	16r	2b	[2cc
(16EL	(16gL	.	.
16D	16f#	.	.
16EJ)	16gJ)	.	.
(16F#L	(16aL	.	.
16E	16g	.	.
16D	16f#y	.	.
16EJ)	16gJ)	.	.
=11	=11	=11	=11
4F#	4a	(8.aL	(8.ccL_
.	.	16cJ)	16aaJ)
16r	16r	2c	[2aa
(16F#yL	(16aL	.	.
16A	16cc	.	.
16GJ)	16bJ)	.	.
(16F#yL	(16aL	.	.
16G	16b	.	.
16F#y	16a	.	.
16EJ)	16gJ)	.	.
=12	=12	=12	=12
4D#	4f#	(8.BL	(8.aaL_
.	.	16aJ)	16bJ)
16r	16r	2a	[2b
16D#y'L	16f#y'L	.	.
16D#y'	16f#y'	.	.
16D#y'J	16f#y'J	.	.
(16D#yL	(16f#yL	.	.
16BB)	16d#)	.	.
(16C	(16e	.	.
16D#yJ)	16f#yJ)	.	.
!!LO:LB
=13	=13	=13	=13
8EL	8eL	8gL	2.b_
8E	8e	8g	.
8F#	8d#	8a	.
8F#y	8d#y	8a	.
8D#	8A	8f#	.
8D#yJ	8AJ	8f#yJ	.
=14	=14	=14	=14
8EL	(8GL	(8eL	4b]
8E	8e)	8g)	.
8F#	(8c	(8a	4ee
8F#y	8aJ)	8ccJ)	.
8G	4dn	(16bL	(16ddL
.	.	16cc)	16ee)
8GJ	.	(16a	(16ff#
.	.	16bJ)	16ggJ)
=15	=15	=15	=15
.	.	(<16qdd	.
.	.	.	(<16qff
8CL	8r	8ccL)	8eeL)
8C	8e	(16b	(16dd
.	.	16aJ)	16ccJ)
8Dn	8dL	4g	4b
8D	8d	.	.
8D	8c	4f#T	4aT
8DJ	8cJ	.	.
=16	=16	=16	=16
4GG	(16BL	(16gL	4g
.	16c	16a	.
.	16d	16b	.
.	16cJ)	16aJ)	.
4G	(16BL	(16gL	4r
.	16c	16a	.
.	16d	16b	.
.	16cJ)	16aJ)	.
4BB	4d	(16gL	4r
.	.	16fn	.
.	.	16e	.
.	.	16dJ)	.
=17	=17	=17	=17
4C	16cL	16eL	4.gg
.	(16c	(16ee	.
.	16e	16gg	.
.	16dJ)	16ff#J)	.
4C	(16cL	(16eeL	.
.	16B	16dd	.
.	16A	16cc	16aaL
.	16GJ)	16bJ)	16bbJ
.	.	(<16qb	.
.	.	.	(<16qddd
4D	16F#L	8aL)	8cccL)
.	(8d	.	.
.	.	(16g	(16bb
.	16cJ)	16f#J)	16aaJ)
!!LO:LB
=18	=18	=18	=18
4GG	4B	(16gL	4gg
.	.	16f#	.
.	.	16g)	.
.	.	16dJ	.
4G	(16dL	(16BL	[2g
.	16c	16A	.
.	16d)	16B)	.
.	16BJ	16GJ	.
4BB	(16dL	(16fnL	.
.	16c	16e	.
.	16d)	16f)	.
.	16BJ	16dJ	.
=19	=19	=19	=19
4C	(16cL	(16eL	4.g]
.	16d	16f#	.
.	16e	16g	.
.	16dJ)	16f#yJ)	.
4C	(16cL	(16eL	.
.	16B	16d	.
.	16A	16c	16aL
.	16GJ)	16BJ)	16bJ
.	.	.	(<16qdd
4D	16F#L	(16AL	8ccL)
.	(8d	16a)	.
.	.	(16g	(16b
.	16cJ)	16f#yJ)	16aJ)
=20	=20	=20	=20
4E	4B	4g	8g
.	.	.	4gg
4C	4G	4e	.
.	.	.	(<16qff
.	.	.	8eeL)
.	.	.	(<16qdd
8r	8r	8r	8cc)
.	.	.	(<16qb
8D	8c	8f#	8aJ)
=21	=21	=21	=21
4.G	(4c	(4f	(4a
.	8B)	8g)	8g)
8DL	8r	8r	8r
8BB	4r	4r	4r
8GGJ	.	.	.
=22:|!	=22:|!	=22:|!	=22:|!
4.Fn	16BL	16dL	(2.g
.	8B	8d	.
.	8B	8d	.
.	8B	8d	.
8DL	.	.	.
.	8B	8d	.
8BB	.	.	.
.	8B	8d	.
8FFJ	.	.	.
.	[16BJ	[16dJ	.
=23	=23	=23	=23
4.E	16BL]	16dL]	2.g#)
.	8B	8d	.
.	8B	8d	.
.	8B	8d	.
8BBL	.	.	.
.	8B	8d	.
8GG#	.	.	.
.	8B	8d	.
8EEJ	.	.	.
.	[16BJ	16dJ	.
=24	=24	=24	=24
4.D	16BL]	16g#L	2.ff
.	8B	8g#y	.
.	8B	8g#y	.
.	8B	8g#y	.
8BBL	.	.	.
.	8B	8g#y	.
8GG#	.	.	.
.	8B	8g#y	.
8DDJ	.	.	.
.	16BJ	16g#yJ	.
=25	=25	=25	=25
4CC	4c	16aL	8ee
.	.	(16e	.
.	.	16d#	4aa
.	.	16eJ)	.
4C	4c	(16fL	.
.	.	16e	.
.	.	16d#y	4aa
.	.	16eJ)	.
4C	(8AL	(16dnL	.
.	.	16c	.
.	8EJ)	16B	8aa
.	.	16AJ)	.
=26	=26	=26	=26
.	.	.	(<16qgg
8DL	(8DL	8.AL	8ffL)
8D	8FJ)	.	(16ee
.	.	16BJ	16ddJ)
8E	8E	(16AL	4cc
.	.	16c	.
8E	(4e	16e	.
.	.	16aJ)	.
8E	.	16g#L	4bT
.	.	16g#y	.
8EJ	8d)	16g#y	.
.	.	16g#yJ	.
!!LO:LB
=27	=27	=27	=27
8FL	4c	8aL	[4a
(8F	.	(8a	.
8E	4r	8gn	16aL]
.	.	.	(32b'
.	.	.	32cc'
8D)	.	8fJ)	32dd'
.	.	.	32ee'
.	.	.	32ff'
.	.	.	32gg#'J)
8C	8cL	8eL	8aaL
8CJ	[8AJ	(32e	(32a
.	.	32a	32cc
.	.	32cc	32ee
.	.	32eeJ)	32aaJ)
=28	=28	=28	=28
.	.	(<16qee	.
.	.	.	(<16qgg
8DL	8AL]	8ddL)	8ffL)
8D	8fJ	(16cc	(16ee
.	.	16bJ)	16ddJ)
8E	4e	(16aL	4cc
.	.	16e	.
8E	.	16c	.
.	.	16AJ)	.
8EE	4c 4C	(16GL	(8.b-LT
.	.	16c	.
8EEJ	.	16e	.
.	.	16gJ)	32a
.	.	.	32b-yJ)
=29	=29	=29	=29
8FFL	4F	(16cL	4a
.	.	16f	.
8F	.	16a	.
.	.	16cJ)	.
8D	2G	(16BnL	4ff
.	.	16d	.
8D	.	16g	.
.	.	16BJ)	.
8C	.	(16GL	4ee
.	.	16c	.
8CJ	.	16e	.
.	.	16gJ)	.
!!LO:LB
=30	=30	=30	=30
8FL	4F	16cL	16r
.	.	16cc	16aaL
8F	.	(16cc	(16aa
.	.	16ddJ)	16bbJ)
8E	8r	8gL	(16bbL
.	.	.	16ccc)
8E	4c	(16a	(16ccc
.	.	16gJ)	16bbJ)
8F	.	(16fL	(16aaL
.	.	16e)	16gg)
8F#J	8A	(16d	(16ff
.	.	16cJ)	16eeJ)
=31	=31	=31	=31
4G	4G	(8.cLT	(8.eeLT
.	.	32B	32dd
.	.	32cJ)	32eeJ)
16r	16r	4B	4dd
16cL	16eL	.	.
16B	16d	.	.
16AJ	16fJ	.	.
16GL	16eL	4r	4r
16Fn	16a	.	.
16E	16g	.	.
16DJ	16bJ	.	.
=32	=32	=32	=32
8CL	4cc	(8.gL	(8.eeL
8cJ	.	.	.
.	.	16eJ)	16cccJ)
16r	8r	[2e	[2ccc
(16cL	.	.	.
16B	8gL	.	.
16cJ)	.	.	.
(16dL	8g	.	.
16c	.	.	.
16B	8gJ	.	.
16cJ)	.	.	.
=33	=33	=33	=33
4A	4f	(8.eL_	(8.cccL_
.	.	16eeJ)	16ffJ)
16r	16r	2ee	[2ff
(16AL	(16ccL	.	.
16G#	16b	.	.
16AJ)	16ccJ)	.	.
(16BL	(16ddL	.	.
16A	16cc	.	.
16G#y	16b	.	.
16AJ)	16ccJ)	.	.
!!LO:LB
=34	=34	=34	=34
4B	4dd	(8.ddL	(8.ffL_
.	.	16fJ)	16dddJ)
16r	16r	2f	[2ddd
16B'L	16d'L	.	.
16B'	16d'	.	.
16B'J	16d'J	.	.
(16BL	(16dL	.	.
16d)	16f)	.	.
(16B	(16d	.	.
16AJ)	16cJ)	.	.
=35	=35	=35	=35
4G	4B	(8.eL	(8.dddL_
.	.	16ddJ)	16eeJ)
16r	16r	2dd	[2ee
(16GL	(16bL	.	.
16F#	16a	.	.
16GJ)	16bJ)	.	.
(16AL	(16ccL	.	.
16G	16b	.	.
16F#y	16a	.	.
16GJ)	16bJ)	.	.
=36	=36	=36	=36
4A	4cc	(8.ccL	(8.eeL_
.	.	16eJ)	16cccJ)
16r	16r	2e	[2ccc
16A'L	16c'L	.	.
16A'	16c'	.	.
16A'J	16c'J	.	.
(16AL	(16cL	.	.
16c)	16e)	.	.
(16A	(16c	.	.
16GJ)	16BJ)	.	.
=37	=37	=37	=37
8F#L	8A	8dL	2.ccc]
8F#y	4d	8a	.
8G	.	8g	.
8G	4d	8g	.
8A	.	8f#	.
8AJ	8d	8f#yJ	.
=38	=38	=38	=38
8GL	8dL	8gL	4bb
8G	8d	8g	.
8Fn	8B	8d	4aa
8F	8BJ	8d	.
8E	[4c	8e	(16ggL
.	.	.	16aa)
8EJ	.	8gJ	(16bb
.	.	.	16cccJ)
=39	=39	=39	=39
.	.	(<16qg	.
.	.	.	(<16qbb
8FL	8cL]	8fnL)	8aaL)
8F	8A	(16e	(16gg
.	.	16dJ)	16ffJ)
8G	8G	4c	4ee
8G	8G	.	.
8GG	8f	4BT	4ddT
8GGJ	8fJ	.	.
=40	=40	=40	=40
4C	8e	16cL	4cc
.	.	(16e	.
.	4E	16g	.
.	.	16fJ)	.
4CC	.	(16eL	4r
.	.	16f	.
.	4G	16e	.
.	.	16dJ)	.
4E	.	(16cL	4r
.	.	16d	.
.	8G	16c	.
.	.	16B-J)	.
=41	=41	=41	=41
4F	16FL	16AL	4.cc
.	(16f	(16a	.
.	16a	16cc	.
.	16gJ)	16bnJ)	.
4F	(16fL	(16aL	.
.	16e	16g	.
.	16d	16f	16ddL
.	16cJ)	16eJ)	16eeJ
.	.	(<16qe	.
.	.	.	(<16qgg
4G	16BL	8dL)	8ffL)
.	(8g	.	.
.	.	(16c	(16ee
.	16fJ)	16BnJ)	16ddJ)
!!LO:LB
=42	=42	=42	=42
4C	8e	16cL	4cc
.	.	(16e	.
.	4E	16g	.
.	.	16fJ)	.
4CC	.	(16eL	4r
.	.	16f	.
.	4G	16e	.
.	.	16dJ)	.
4E	.	(16cL	4r
.	.	16d	.
.	8G	16c	.
.	.	16B-J)	.
=43	=43	=43	=43
4F	16FL	16AL	4.cc
.	(16f	(16a	.
.	16a	16cc	.
.	16gJ)	16bnJ)	.
4F	(16fL	(16aL	.
.	16e	16g	.
.	16d	16f	16ddL
.	16cJ)	16eJ)	16eeJ
.	.	(<16qe	.
.	.	.	(<16qgg
4G	16BL	8dL)	8ffL)
.	(8g	.	.
.	.	(16c	(16ee
.	16fJ)	16BnJ)	16ddJ)
=44	=44	=44	=44
4A	4e	4c	8cc
.	.	.	4ccc
4F	4A	4c	.
.	.	.	(<16qbb
.	.	.	8aaL)
.	.	.	(<16qgg
8r	8r	8r	8ff)
.	.	.	(<16qee
8G	8B	8f	8ddJ)
=	=	=	=
*-	*-	*-	*-
!!!RDF**kern: < = below
